X:1
T:Frühling ohn' Ende
T:Josef G. Rheinberger 1871
T:Robert Reinick (1805-1852)
T:Frühling ohn' Ende
T:aus: Im neuen Frühling, op 52,1
T:Creative Commons Attribution Non Commercial 3.0
T:Creative Commons Attribution Non Commercial 3.0
C:Josef G. Rheinberger
Z:Creative Commons Attribution Non Commercial 3.0
%%score [ 1 2 3 4 ]
L:1/8
Q:1/4=52
M:2/4
K:G
V:1 treble nm="Sopran"
V:2 treble nm="Alt"
V:3 treble-8 nm="Tenor"
V:4 bass nm="Bass"
V:1
"^Einfach, im Volkston"!p! B | BA AG | G2 DD | D!<(!G GA | B3!<)! B | d!>(!c cB!>)! | A2 E!f!E | %7
w: 1.~Nun|bre- chen al- ler|En- den die|Blu- men aus dem|Plan, wo|ich mich hin mag|wen- den, da|
 e>e fe |"^smorz." ^d4 | =dA/^G/ BA | =G2 F z/!mf!!<(! F/!<)! | f/e/ d/c/!>(! B/A/ c/A/!>)! | %12
w: hebt ein Klin- gen|an!|Möcht dir ein Sträuß- lein|bin- den, möcht|dir _ ein _ Lied _ er- *|
 G2 F2 |!pp! GF/G/ AG |!<(! (F3 A)!<)! |!f! A"^rit.    --    --    --"^G/A/ B A/d/ | %16
w: fin- den.|Wo a- ber fang ich|an, *|wo a- ber fang ich *|
 !fermata!d2 z |] %17
w: an?|
V:2
!p! G | GF FD | D2 CC | B,!<(!D DF | G3!<)! G | G!>(!G F^G!>)! | E2 D!f!D | E>E ^DE | F4 | %9
w: 2.~Hier|blühn Ma- ri- en-|ster- ne, dort|Pri- meln dicht und|bunt; bald|ruft ein Horn zur|Fer- ne, bald|rauscht's im küh- len|Grund,|
 FF/F/ FF | E2 D z/!mf! D/ | FF!>(! FF!>)! | E2 D2 |!pp! DD/D/ DD |!<(! D4!<)! |!f! FF/F/ FF | %16
w: wir- re ist mir zu|Sin- ne, weiß|nicht was ich be-|gin- ne;|ist doch mein Herz ver-|wund't,|ist doch mein Herz ver-|
 !fermata!G2 z |] %17
w: wund't.|
V:3
!p! d | dd dG | G2 FF | G!<(!G Gd | d3!<)! d | =f!>(!e dd!>)! | c2 ^G!f!G | A>A AA | (A3 B) | %9
w: 3.~Ja,|möch- test selbst du|kom- men, da|wär's wohl gu- te|Zeit, all|Leid wär mir be-|nom- men und|lau- ter Se- lig-|keit; *|
 cc/c/ cc | c2 c z/!mf! d/ | dA!>(! cA!>)! | c2 c2 |!pp! BB/B/ BB |!<(! (B3 c)!<)! |!f! cB/c/ dc | %16
w: Blu- men, sie könn- ten|blü- hen, die|Klän- ge wei- ter|zie- hen,|ist doch die Welt so|weit, *|ist doch die Welt so|
 !fermata!B2 z |] %17
w: weit.|
V:4
!p! G, | G,D, D,B,, | B,,2 A,,A,, | G,,!<(!B,, B,,D, | G,3!<)! G, | B,,!>(!C, D,E,!>)! | %6
w: 4.~Wenn|sich zwei Au- gen|fun- den, wer|schaut die Blu- men|an? Wenn|sich zwei Münd- lein|
 A,,2 B,,!f!B,, | C,>C, C,C, | B,,4 | D,D,/D,/ D,D, | A,2 D, z/!mf! D,/ | DD,!>(! D,D,!>)! | %12
w: run- den, was|braucht's der Lie- der|dann?|Ei- nen sich Herz und|Hän- de welch|Früh- ling oh- ne|
 A,2 D,2 |!pp! G,F,/G,/ A,G, |!<(! F,4!<)! |!f! D,D,/D,/ D,D, | !fermata!G,,2 z |] %17
w: En- de|hebt da zu blü- hen|an,|hebt da zu blü- hen|an!|

